dist/img/instagram-1-svgrepo-com.svg

<?xml version="1.0" encoding="utf-8"?><!-- Uploaded to: SVG Repo, www.svgrepo.com, Generator: SVG Repo Mixer Tools -->
<svg width="800px" height="800px" viewBox="0 0 32 32" fill="none" xmlns="http://www.w3.org/2000/svg">
<rect x="2" y="2" width="28" height="28" rx="6" fill="url(#paint0_radial_87_7153)"/>
<rect x="2" y="2" width="28" height="28" rx="6" fill="url(#paint1_radial_87_7153)"/>
<rect x="2" y="2" width="28" height="28" rx="6" fill="url(#paint2_radial_87_7153)"/>
<path d="M23 10.5C23 11.3284 22.3284 12 21.5 12C20.6716 12 20 11.3284 20 10.5C20 9.67157 20.6716 9 21.5 9C22.3284 9 23 9.67157 23 10.5Z" fill="white"/>
<path fill-rule="evenodd" clip-rule="evenodd" d="M16 21C18.7614 21 21 18.7614 21 16C21 13.2386 18.7614 11 16 11C13.2386 11 11 13.2386 11 16C11 18.7614 13.2386 21 16 21ZM16 19C17.6569 19 19 17.6569 19 16C19 14.3431 17.6569 13 16 13C14.3431 13 13 14.3431 13 16C13 17.6569 14.3431 19 16 19Z" fill="white"/>
<path fill-rule="evenodd" clip-rule="evenodd" d="M6 15.6C6 12.2397 6 10.5595 6.65396 9.27606C7.2292 8.14708 8.14708 7.2292 9.27606 6.65396C10.5595 6 12.2397 6 15.6 6H16.4C19.7603 6 21.4405 6 22.7239 6.65396C23.8529 7.2292 24.7708 8.14708 25.346 9.27606C26 10.5595 26 12.2397 26 15.6V16.4C26 19.7603 26 21.4405 25.346 22.7239C24.7708 23.8529 23.8529 24.7708 22.7239 25.346C21.4405 26 19.7603 26 16.4 26H15.6C12.2397 26 10.5595 26 9.27606 25.346C8.14708 24.7708 7.2292 23.8529 6.65396 22.7239C6 21.4405 6 19.7603 6 16.4V15.6ZM15.6 8H16.4C18.1132 8 19.2777 8.00156 20.1779 8.0751C21.0548 8.14674 21.5032 8.27659 21.816 8.43597C22.5686 8.81947 23.1805 9.43139 23.564 10.184C23.7234 10.4968 23.8533 10.9452 23.9249 11.8221C23.9984 12.7223 24 13.8868 24 15.6V16.4C24 18.1132 23.9984 19.2777 23.9249 20.1779C23.8533 21.0548 23.7234 21.5032 23.564 21.816C23.1805 22.5686 22.5686 23.1805 21.816 23.564C21.5032 23.7234 21.0548 23.8533 20.1779 23.9249C19.2777 23.9984 18.1132 24 16.4 24H15.6C13.8868 24 12.7223 23.9984 11.8221 23.9249C10.9452 23.8533 10.4968 23.7234 10.184 23.564C9.43139 23.1805 8.81947 22.5686 8.43597 21.816C8.27659 21.5032 8.14674 21.0548 8.0751 20.1779C8.00156 19.2777 8 18.1132 8 16.4V15.6C8 13.8868 8.00156 12.7223 8.0751 11.8221C8.14674 10.9452 8.27659 10.4968 8.43597 10.184C8.81947 9.43139 9.43139 8.81947 10.184 8.43597C10.4968 8.27659 10.9452 8.14674 11.8221 8.0751C12.7223 8.00156 13.8868 8 15.6 8Z" fill="white"/>
<defs>
<radialGradient id="paint0_radial_87_7153" cx="0" cy="0" r="1" gradientUnits="userSpaceOnUse" gradientTransform="translate(12 23) rotate(-55.3758) scale(25.5196)">
<stop stop-color="#B13589"/>
<stop offset="0.79309" stop-color="#C62F94"/>
<stop offset="1" stop-color="#8A3AC8"/>
</radialGradient>
<radialGradient id="paint1_radial_87_7153" cx="0" cy="0" r="1" gradientUnits="userSpaceOnUse" gradientTransform="translate(11 31) rotate(-65.1363) scale(22.5942)">
<stop stop-color="#E0E8B7"/>
<stop offset="0.444662" stop-color="#FB8A2E"/>
<stop offset="0.71474" stop-color="#E2425C"/>
<stop offset="1" stop-color="#E2425C" stop-opacity="0"/>
</radialGradient>
<radialGradient id="paint2_radial_87_7153" cx="0" cy="0" r="1" gradientUnits="userSpaceOnUse" gradientTransform="translate(0.500002 3) rotate(-8.1301) scale(38.8909 8.31836)">
<stop offset="0.156701" stop-color="#406ADC"/>
<stop offset="0.467799" stop-color="#6A45BE"/>
<stop offset="1" stop-color="#6A45BE" stop-opacity="0"/>
</radialGradient>
</defs>
</svg>

<svg width="800" height="800" viewBox="0 0 32 32" fill="none" xmlns="http://www.w3.org/2000/svg"><rect x="2" y="2" width="28" height="28" rx="6" fill="url(#paint0_radial_87_7153)"/><rect x="2" y="2" width="28" height="28" rx="6" fill="url(#paint1_radial_87_7153)"/><rect x="2" y="2" width="28" height="28" rx="6" fill="url(#paint2_radial_87_7153)"/><path d="M23 10.5a1.5 1.5 0 11-3 0 1.5 1.5 0 013 0z" fill="#fff"/><path fill-rule="evenodd" clip-rule="evenodd" d="M16 21a5 5 0 100-10 5 5 0 000 10zm0-2a3 3 0 100-6 3 3 0 000 6z" fill="#fff"/><path fill-rule="evenodd" clip-rule="evenodd" d="M6 15.6c0-3.36 0-5.04.654-6.324a6 6 0 012.622-2.622C10.56 6 12.24 6 15.6 6h.8c3.36 0 5.04 0 6.324.654a6 6 0 012.622 2.622C26 10.56 26 12.24 26 15.6v.8c0 3.36 0 5.04-.654 6.324a6 6 0 01-2.622 2.622C21.44 26 19.76 26 16.4 26h-.8c-3.36 0-5.04 0-6.324-.654a6 6 0 01-2.622-2.622C6 21.44 6 19.76 6 16.4v-.8zM15.6 8h.8c1.713 0 2.878.002 3.778.075.877.072 1.325.202 1.638.361a4 4 0 011.748 1.748c.16.313.29.761.36 1.638.074.9.076 2.065.076 3.778v.8c0 1.713-.002 2.878-.075 3.778-.072.877-.202 1.325-.361 1.638a4 4 0 01-1.748 1.748c-.313.16-.761.29-1.638.36-.9.074-2.065.076-3.778.076h-.8c-1.713 0-2.878-.002-3.778-.075-.877-.072-1.325-.202-1.638-.361a4 4 0 01-1.748-1.748c-.16-.313-.29-.761-.36-1.638C8.001 19.278 8 18.113 8 16.4v-.8c0-1.713.002-2.878.075-3.778.072-.877.202-1.325.361-1.638a4 4 0 011.748-1.748c.313-.16.761-.29 1.638-.36.9-.074 2.065-.076 3.778-.076z" fill="#fff"/><defs><radialGradient id="paint0_radial_87_7153" cx="0" cy="0" r="1" gradientUnits="userSpaceOnUse" gradientTransform="rotate(-55.376 27.916 .066) scale(25.5196)"><stop stop-color="#B13589"/><stop offset=".793" stop-color="#C62F94"/><stop offset="1" stop-color="#8A3AC8"/></radialGradient><radialGradient id="paint1_radial_87_7153" cx="0" cy="0" r="1" gradientUnits="userSpaceOnUse" gradientTransform="rotate(-65.136 29.766 6.89) scale(22.5942)"><stop stop-color="#E0E8B7"/><stop offset=".445" stop-color="#FB8A2E"/><stop offset=".715" stop-color="#E2425C"/><stop offset="1" stop-color="#E2425C" stop-opacity="0"/></radialGradient><radialGradient id="paint2_radial_87_7153" cx="0" cy="0" r="1" gradientUnits="userSpaceOnUse" gradientTransform="matrix(38.50003 -5.5 1.1764 8.23476 .5 3)"><stop offset=".157" stop-color="#406ADC"/><stop offset=".468" stop-color="#6A45BE"/><stop offset="1" stop-color="#6A45BE" stop-opacity="0"/></radialGradient></defs></svg>
